X:1
T:Glens Falls, 76.76 D
T:Glens Falls, 76.76 D
T:Adam Geibel, 1900
T:Public Domain Courtesy of the Cyber Hymnal™
C:Adam Geibel, 1900
Z:Public Domain
Z:Courtesy of the Cyber Hymnal™
%%score ( 1 2 ) ( 3 4 )
L:1/8
Q:1/4=110
M:4/4
K:G
V:1 treble 
V:2 treble 
V:3 bass 
V:4 bass 
V:1
 [DG]2 | [GB]3 [FA] G2 [Ge]2 | [Gd]4 [GB]2 [DG]2 | [GB]3 [GB] (dc) (Bc) | [GB]4 [FA]2 [DG]2 | %5
 [GB]3 [FA] G2 [Ge]2 | [Gd]4 [GB]2 [DG]2 | [GB]3 [EA] [DG]2 [DF]2 | [DG]6 [=FG]2 | %9
 [EG]3 [Ec] [Ec]2 [Ge]2 | [Ge]2 [Gd]2 z2 [GB]2 | [FA]3 [FA] [GA]2 (B^c) | [Fd]6 [Fc]2 | %13
 [GB]3 [FA] G2 [=Fd]2 | [Ee]4 [Ec]2 [EA]2 | [DG]3 [DG] (FG) (AB) | G6 |] %17
V:2
 x2 | x4 G2 x2 | x8 | x4 A2 G2 | x8 | x4 G2 x2 | x8 | x8 | x8 | x8 | x8 | x6 G2 | x8 | x4 G2 x2 | %14
 x8 | x4 D2 F2 | G6 |] %17
V:3
 [G,B,]2 | [G,D]3 [G,C] [G,B,]2 [G,C]2 | [G,B,]4 [G,D]2 [G,B,]2 | [G,D]3 [G,D] [F,D]2 [G,D]2 | %4
 [D,D]6 [G,B,]2 | [G,D]3 [G,C] [G,B,]2 [G,C]2 | [G,B,]4 [G,D]2 [G,B,]2 | %7
 [B,,D]3 [B,,C] [D,B,]2 (A,C) | [G,,B,]6 [G,B,]2 | [C,C]3 [C,G,] [C,G,]2 [C,C]2 | %10
 [G,C]2 [G,B,]2 z2 [G,D]2 | [A,D]3 [A,D] [A,^C]2 (DE) | [D,D]6 [D,D]2 | %13
 [G,D]3 [G,C] [G,B,]2 [G,B,]2 | [C,C]4 [C,A,]2 [C,C]2 | [D,B,]3 [D,B,] (A,B,) (CD) | [G,B,]6 |] %17
V:4
 x2 | x8 | x8 | x8 | x8 | x8 | x8 | x6 D,2 | x8 | x8 | x8 | x6 A,2 | x8 | x8 | x8 | x4 D,2 D,2 | %16
 x6 |] %17

